X:1
T:Friendship 
T:George Frideric Handel, 1736 G Major                     Arranged by G. Cook, 1813 
T:Bidwell, 1786                          87. 87. 88. 87. 
T:Transcribed from Wyeth's Repository, Part Second , 1813. 
%%score [ 1 2 3 ]
L:1/8
Q:1/4=120
M:4/4
K:G
V:1 treble nm="Tr." snm="Tr."
V:2 treble-8 nm="T." snm="T."
V:3 bass nm="B." snm="B."
V:1
"_Friendship to every   willing  mind    O – pens  a  heaven – ly   trea  –  sure;\nThere may the sons of sorrow find     The  sources  of       real   plea  – sure.\n""_1. {" B2 c d e2 d2 | %1
 G2 AG F4 | G2 B c d3 c | (dA d2)"_}" B4 :: %4
"_See what employments men pursue, Then you will  own  my  words   are     true:\n" B2 c B B2 e2 | %5
 d2 c2 B4 | G2 G A B2 d2 | ec dG F4 | %8
"_1. Friendship alone  unfolds  to  view    The  sources  of       real    plea   –   sure.         pleas   –   sure.\n" B2 c d e2 d2 | %9
 G2 AG F4 | G2 B c d3 c |1 (dA d2) B4 :|2 (dA d2) B4- | B8 |] %14
V:2
"_Poor are the joys that fools esteem,   Fa – ding  and  tran – si  –  to     –    ry;\nMirth is  as  fleeting   as   a  dream.   Or     a    de – lu  –  sive     sto    –    ry:\n\n""_2. {" B2 c B A2 d2 | %1
 G2 FG A4 | Bc d c B2 AG | A4"_}" G4 :: %4
"_Luxury  leaves  a  sting  behind    Wounding  the  body        and     the     mind,\n" B2 c d e2 e2 | %5
 d2 c2 B4 | B2 B c d2 e2 | d2 c2 A4 | %8
"_2. Only  in  friendship  can  we  find    Pleasure  and  so  –  lid      glo      –     ry.          glo     –     ry.\n\n" B2 c B A2 d2 | %9
 G2 FG A4 | Bc d c B2 AG |1 A4 G4 :|2 A4 G4- | G8 |] %14
V:3
"_Learning, that boasting, glittering thing. Scarcely is worth pos – ses   –   sing;\nRiches,  for – ev – er     on    the    wing,  Scarce can be called  a  bles   –  sing:\n\n""_3. {" B,2 G, G, F,2 F,2 | %1
 E,2 E,2 D,4 | F,D, E, F, G,2 C,2 | D,4"_}" G,,4 :: %4
"_Fame like a shadow flies away,    Titles     and    dig –  ni  –   ty       de   –   cay,\n" G,2 A, B, C2 C2 | %5
 B,2 A,2 G,4 | G,2 G, A, B,2 CB, | A,2 G,2 D,E,F,D, | %8
"_3. Nothing but friendship can display   Joys  that  are  freed  from  trou    –   ble.         trou    –    ble.\n\n""_____________________________________________________________________________________\nThe melody \n(Tenor\n ) was written by George Frideric Handel as an aria from his opera \nLa caccia in Etolia\n \n   in 1715, published in 1736. There is a two part version (Tenor-Bass) in \nAmerican Musical Miscellany\n   of 1798. The above three-part version from 1813 was rearranged for four parts by Ananias Davisson \n   in his \nSupplement to the Kentucky Harmony\n in 1820.\n" G,2 G, G, F,2 F,2 | %9
 E,2 E,2 D,4 | F,D, E, F, G,2 C,2 |1 D,4 G,,4 :|2 D,4 G,,4- | G,,8 |] %14

